src/22/actions/view-calendar-upcoming-events.svg

<svg xmlns="http://www.w3.org/2000/svg" viewBox="0 0 22 22"><path d="M6 3S5 3 5 4H3v15h16V4h-2c0-1-1-1-1-1h-3s-1 0-1 1h-2c0-1-1-1-1-1H6zm0 1h3v1H6V4zm7 0h3v1h-3V4zM4 7h14v11H4V7zm1 2v2h2V9H5zm4 0v2h2V9H9zm4 0v2h2V9h-2zm-4 3v2h2v-2H9zm4 0v2h2v-2h-2z" fill="currentColor" color="#5d656b"/><path d="M16 9v5h1V9h-1zm0 6v1h1v-1h-1z" fill="#da4453"/></svg>

<svg xmlns="http://www.w3.org/2000/svg" viewBox="0 0 22 22">
  <defs id="defs3051">
    <style type="text/css" id="current-color-scheme">
      .ColorScheme-Text {
        color:#5d656b;
      }
      </style>
  </defs>
 <path 
     style="fill:currentColor;fill-opacity:1;stroke:none" 
     d="M 6 3 C 6 3 5 2.99997 5 4 L 3 4 L 3 7 L 3 18 L 3 19 L 19 19 L 19 18 L 19 7 L 19 4 L 17 4 C 17 2.99997 16 3 16 3 L 13 3 C 13 3 12 2.99997 12 4 L 10 4 C 10 2.99997 9 3 9 3 L 6 3 z M 6 4 L 9 4 L 9 5 L 6 5 L 6 4 z M 13 4 L 16 4 L 16 5 L 13 5 L 13 4 z M 4 7 L 18 7 L 18 18 L 4 18 L 4 7 z M 5 9 L 5 11 L 7 11 L 7 9 L 5 9 z M 9 9 L 9 11 L 11 11 L 11 9 L 9 9 z M 13 9 L 13 11 L 15 11 L 15 9 L 13 9 z M 9 12 L 9 14 L 11 14 L 11 12 L 9 12 z M 13 12 L 13 14 L 15 14 L 15 12 L 13 12 z "
     class="ColorScheme-Text"
     />
 <path 
     style="fill:#da4453;fill-opacity:1;stroke:none" 
     d="M 16 9 L 16 14 L 17 14 L 17 9 L 16 9 z M 16 15 L 16 16 L 17 16 L 17 15 L 16 15 z "
     />
</svg>
